!!!OTL: ALLES LIEBT UND PAART SICH WIEDER
!!!ARE: Europa, Mitteleuropa, Deutschland
!!!SCT: F0939
!!!YEM: Copyright 1995, estate of Helmut Schaffrath.
**kern
*ICvox
*Ivox
*M4/4
*k[f#]
*G:
{8d
8d
=1
4.g
8g
4.g
8a
=2
8g
8f#
4f#
4r}
{8d
8f#
=3
4.a
8a
8a
8cc
8b
8a
=4
8a
8g
4g
4r}
{8b
8b
=5
4.b
8g
4g
8a
8b
=6
4b
4a
4r}
{8cc
8a
=7
8g
8f#
8e
8d
4d
8e
8f#
=8
8a
8g
4g
4r}
{8b
8g
=9
8g
8f#
8e
8d
4d
8e
8f#
=10
8a
8g
4g
4r}
{8b
8b
=11
8b
8a
8cc
8a
8a
8g
8g
8f#
=12
2.dd}
{8cc
8b
=13
8b
8a
8cc
8a
8a
8g
8g
8f#
=14
2g
4r}
==
!!!AGN: Liebes - Lied
!!!ONB: ESAC (Essen Associative Code) Database: FINK
!!!AMT: simple quadruple
!!!AIN: vox
!!!EED: Helmut Schaffrath
!!!EEV: 1.0
*-
